X: 13374
T: Fleshmarket Close
R: reel
M: 4/4
K: Adorian
|:Bd|eAAA GABd|eeed edBA|dGGG dGBd|eddd edBG|
eAAA GABd|eeed edBA|dGBd edBd|eAAA A2:|
Bd|eAAA aAAg|gAfd eAAA|dGGG dGBd|eddd edBG|
eAAA aAAg|gAfd eAAA|dGBd edBd|eAAA A2Bd|
eAAA aAAg|gAfd eAAA|dGGG dGBd|eddd edBG|
eAAA GABd|eeed edBA|dGBd edBd|eAAA A2||

